; generated by Slic3r 1.2.9 on 2016-12-29 at 11:25:36

; external perimeters extrusion width = 0.40mm
; perimeters extrusion width = 0.68mm
; infill extrusion width = 1.28mm
; solid infill extrusion width = 0.68mm
; top infill extrusion width = 0.68mm

M107
M190 S50 ; set bed temperature
M104 S200 ; set temperature
G28
G1 Z5
M109 S200 ; wait for temperature to be reached
G21 ; set units to millimeters
G90 ; use absolute coordinates
M82 ; use absolute distances for extrusion
G92 E0
G1 Z0.400 F6000.000
G1 E-1.20000 F2400.00000
G92 E0
G1 X84.827 Y85.720 F6000.000
G1 E1.20000 F2400.00000
G1 X86.583 Y84.220 E1.47422 F1800.000
G1 X88.743 Y83.405 E1.74845
G1 X90.000 Y83.286 E1.89842
G1 X110.000 Y83.286 E4.27372
G1 X112.275 Y83.683 E4.54794
G1 X114.280 Y84.827 E4.82217 F1800.000
G1 X115.780 Y86.583 E5.09639
G1 X116.595 Y88.743 E5.37062
G1 X116.714 Y90.000 E5.52059
G1 X116.714 Y110.000 E7.89589
G1 X116.317 Y112.275 E8.17011
G1 X115.173 Y114.280 E8.44434
G1 X113.417 Y115.780 E8.71856
G1 X111.257 Y116.595 E8.99279
G1 X110.000 Y116.714 E9.14275
G1 X90.000 Y116.714 E11.51806
G1 X87.725 Y116.317 E11.79228
G1 X85.720 Y115.173 E12.06651
G1 X84.220 Y113.417 E12.34073
G1 X83.405 Y111.257 E12.61496
G1 X83.286 Y110.000 E12.76492
G1 X83.286 Y90.000 E15.14023
G1 X83.683 Y87.725 E15.41445
G1 X84.797 Y85.772 E15.68155
G1 E14.48155 F2400.00000
G92 E0
G1 X108.686 Y108.886 F6000.000
G1 E1.20000 F2400.00000
G1 X91.314 Y108.886 E3.26315 F1800.000
G1 X91.314 Y91.114 E5.37381
G1 X108.686 Y91.114 E7.43696
G1 X108.686 Y108.826 E9.54049
G1 X109.400 Y109.600 F6000.000
G1 X90.600 Y109.600 E11.77328 F1800.000
G1 X90.600 Y90.400 E14.05357
G1 X109.400 Y90.400 E16.28635
G1 X109.400 Y109.540 E18.55952
G1 X109.054 Y109.400 F6000.000
G1 X108.250 Y91.893 F6000.000
G1 X107.907 Y91.550 E18.61783 F1800.000
G1 X106.885 Y91.550 E18.74074
G1 X108.250 Y92.915 E18.97287
G1 X108.250 Y93.937 E19.09578
G1 X105.863 Y91.550 E19.50173
G1 X104.840 Y91.550 E19.62464
G1 X108.250 Y94.960 E20.20441
G1 X108.250 Y95.982 E20.32732
G1 X103.818 Y91.550 E21.08091
G1 X102.796 Y91.550 E21.20382
G1 X108.250 Y97.004 E22.13123
G1 X108.250 Y98.027 E22.25414
G1 X101.773 Y91.550 E23.35536
G1 X100.751 Y91.550 E23.47827
G1 X108.250 Y99.049 E24.75332
G1 X108.250 Y100.071 E24.87623
G1 X99.728 Y91.550 E26.32509
G1 X98.706 Y91.550 E26.44800
G1 X108.250 Y101.094 E28.07068
G1 X108.250 Y102.116 E28.19359
G1 X97.684 Y91.550 E29.99009
G1 X96.661 Y91.550 E30.11300
G1 X108.250 Y103.139 E32.08332
G1 X108.250 Y104.161 E32.20623
G1 X95.639 Y91.550 E34.35036
G1 X94.617 Y91.550 E34.47327
G1 X108.250 Y105.183 E36.79123
G1 X108.250 Y106.206 E36.91414
G1 X93.594 Y91.550 E39.40591
G1 X92.572 Y91.550 E39.52882
G1 X108.250 Y107.228 E42.19442
G1 X108.250 Y108.250 E42.31733
G1 X91.750 Y91.750 E45.12273
G1 X91.750 Y92.772 E45.24564
G1 X107.428 Y108.450 E47.91123
G1 X106.406 Y108.450 E48.03414
G1 X91.750 Y93.794 E50.52592
G1 X91.750 Y94.817 E50.64882
G1 X105.383 Y108.450 E52.96678
G1 X104.361 Y108.450 E53.08969
G1 X91.750 Y95.839 E55.23382
G1 X91.750 Y96.861 E55.35673
G1 X103.339 Y108.450 E57.32705
G1 X102.316 Y108.450 E57.44996
G1 X91.750 Y97.884 E59.24646
G1 X91.750 Y98.906 E59.36937
G1 X101.294 Y108.450 E60.99205
G1 X100.271 Y108.450 E61.11496
G1 X91.750 Y99.929 E62.56382
G1 X91.750 Y100.951 E62.68673
G1 X99.249 Y108.450 E63.96177
G1 X98.227 Y108.450 E64.08468
G1 X91.750 Y101.973 E65.18590
G1 X91.750 Y102.996 E65.30881
G1 X97.204 Y108.450 E66.23622
G1 X96.182 Y108.450 E66.35912
G1 X91.750 Y104.018 E67.11271
G1 X91.750 Y105.040 E67.23562
G1 X95.160 Y108.450 E67.81539
G1 X94.137 Y108.450 E67.93830
G1 X91.750 Y106.063 E68.34425
G1 X91.750 Y107.085 E68.46715
G1 X93.115 Y108.450 E68.69929
G1 X92.093 Y108.450 E68.82219
G1 X91.750 Y108.107 E68.88051
M104 S195 ; set temperature
G1 Z0.500 F6000.000
G1 X108.831 Y109.281 F6000.000
G1 X91.169 Y109.281 E69.36410 F3600.000
G1 X91.169 Y90.719 E69.87233
G1 X108.831 Y90.719 E70.35592
G1 X108.831 Y109.221 E70.86251
G1 X109.350 Y109.800 F6000.000
G1 X90.650 Y109.800 E71.15681 F1800.000
G1 X90.650 Y90.200 E71.46527
G1 X109.350 Y90.200 E71.75957
G1 X109.350 Y109.740 E72.06709
G1 X109.004 Y109.600 F6000.000
G1 X108.112 Y108.881 F6000.000
G1 X108.431 Y108.562 E72.07962 F1200.000
G1 X108.431 Y107.618 E72.10583
G1 X107.168 Y108.881 E72.15542
G1 X106.224 Y108.881 E72.18162
G1 X108.431 Y106.674 E72.26827
G1 X108.431 Y105.730 E72.29447
G1 X105.280 Y108.881 E72.41817
G1 X104.336 Y108.881 E72.44438
G1 X108.431 Y104.786 E72.60513
G1 X108.431 Y103.842 E72.63134
G1 X103.392 Y108.881 E72.82915
G1 X102.448 Y108.881 E72.85535
G1 X108.431 Y102.898 E73.09022
G1 X108.431 Y101.953 E73.11642
G1 X101.503 Y108.881 E73.38835
G1 X100.559 Y108.881 E73.41455
G1 X108.431 Y101.009 E73.72353
G1 X108.431 Y100.065 E73.74973
G1 X99.615 Y108.881 E74.09577
G1 X98.671 Y108.881 E74.12197
G1 X108.431 Y99.121 E74.50506
G1 X108.431 Y98.177 E74.53127
G1 X97.727 Y108.881 E74.95141
G1 X96.783 Y108.881 E74.97762
G1 X108.431 Y97.233 E75.43482
G1 X108.431 Y96.289 E75.46102
G1 X95.839 Y108.881 E75.95528
G1 X94.895 Y108.881 E75.98148
G1 X108.431 Y95.345 E76.51279
G1 X108.431 Y94.401 E76.53900
G1 X93.951 Y108.881 E77.10737
G1 X93.007 Y108.881 E77.13357
G1 X108.431 Y93.457 E77.73899
G1 X108.431 Y92.513 E77.76519
G1 X92.063 Y108.881 E78.40767
G1 X91.569 Y108.431 E78.42622
G1 X108.431 Y91.569 E79.08809
G1 X107.937 Y91.119 E79.10664
G1 X91.569 Y107.487 E79.74912
G1 X91.569 Y106.543 E79.77532
G1 X106.993 Y91.119 E80.38075
G1 X106.049 Y91.119 E80.40695
G1 X91.569 Y105.599 E80.97532
G1 X91.569 Y104.655 E81.00152
G1 X105.105 Y91.119 E81.53283
G1 X104.161 Y91.119 E81.55903
G1 X91.569 Y103.711 E82.05329
G1 X91.569 Y102.767 E82.07949
G1 X103.217 Y91.119 E82.53669
G1 X102.273 Y91.119 E82.56289
G1 X91.569 Y101.823 E82.98304
G1 X91.569 Y100.879 E83.00924
G1 X101.329 Y91.119 E83.39233
G1 X100.385 Y91.119 E83.41853
G1 X91.569 Y99.935 E83.76457
G1 X91.569 Y98.991 E83.79077
G1 X99.441 Y91.119 E84.09975
G1 X98.497 Y91.119 E84.12595
G1 X91.569 Y98.047 E84.39787
G1 X91.569 Y97.102 E84.42408
G1 X97.552 Y91.119 E84.65894
G1 X96.608 Y91.119 E84.68515
G1 X91.569 Y96.158 E84.88296
G1 X91.569 Y95.214 E84.90916
G1 X95.664 Y91.119 E85.06992
G1 X94.720 Y91.119 E85.09612
G1 X91.569 Y94.270 E85.21982
G1 X91.569 Y93.326 E85.24602
G1 X93.776 Y91.119 E85.33267
G1 X92.832 Y91.119 E85.35887
G1 X91.569 Y92.382 E85.40846
G1 X91.569 Y91.438 E85.43466
G1 X91.888 Y91.119 E85.44720
G1 Z0.600 F6000.000
G1 X108.731 Y109.281 F6000.000
G1 X91.269 Y109.281 E85.92531 F3600.000
G1 X91.269 Y90.719 E86.43355
G1 X108.731 Y90.719 E86.91166
G1 X108.731 Y109.221 E87.41825
G1 X109.517 Y109.800 F6000.000
G1 X90.483 Y109.800 E87.71781 F1800.000
G1 X90.750 Y109.533 E87.72376
G1 X90.750 Y90.467 E88.02381
G1 X90.483 Y90.200 E88.02976
G1 X109.517 Y90.200 E88.32932
G1 X109.250 Y90.467 E88.33526
G1 X109.250 Y109.533 E88.63531
G1 X109.475 Y109.758 E88.64032
G1 X109.131 Y109.696 F6000.000
G1 X91.669 Y108.562 F6000.000
G1 X91.988 Y108.881 E88.65278 F1200.000
G1 X92.926 Y108.881 E88.67867
G1 X91.669 Y107.624 E88.72775
G1 X91.669 Y106.685 E88.75365
G1 X93.865 Y108.881 E88.83935
G1 X94.804 Y108.881 E88.86525
G1 X91.669 Y105.746 E88.98757
G1 X91.669 Y104.808 E89.01346
G1 X95.742 Y108.881 E89.17241
G1 X96.681 Y108.881 E89.19830
G1 X91.669 Y103.869 E89.39387
G1 X91.669 Y102.931 E89.41976
G1 X97.619 Y108.881 E89.65195
G1 X98.558 Y108.881 E89.67784
G1 X91.669 Y101.992 E89.94665
G1 X91.669 Y101.054 E89.97254
G1 X99.496 Y108.881 E90.27797
G1 X100.435 Y108.881 E90.30386
G1 X91.669 Y100.115 E90.64591
G1 X91.669 Y99.177 E90.67180
G1 X101.373 Y108.881 E91.05047
G1 X102.312 Y108.881 E91.07637
G1 X91.669 Y98.238 E91.49165
G1 X91.669 Y97.300 E91.51755
G1 X103.250 Y108.881 E91.96946
G1 X104.189 Y108.881 E91.99535
G1 X91.669 Y96.361 E92.48388
G1 X91.669 Y95.423 E92.50978
G1 X105.127 Y108.881 E93.03493
G1 X106.066 Y108.881 E93.06082
G1 X91.669 Y94.484 E93.62259
G1 X91.669 Y93.546 E93.64849
G1 X107.004 Y108.881 E94.24688
G1 X107.943 Y108.881 E94.27278
G1 X91.669 Y92.607 E94.90779
G1 X91.669 Y91.669 E94.93368
G1 X108.331 Y108.331 E95.58386
G1 X108.331 Y107.393 E95.60975
G1 X92.057 Y91.119 E96.24477
G1 X92.996 Y91.119 E96.27066
G1 X108.331 Y106.454 E96.86905
G1 X108.331 Y105.516 E96.89495
G1 X93.934 Y91.119 E97.45672
G1 X94.873 Y91.119 E97.48262
G1 X108.331 Y104.577 E98.00777
G1 X108.331 Y103.639 E98.03366
G1 X95.811 Y91.119 E98.52219
G1 X96.750 Y91.119 E98.54809
G1 X108.331 Y102.700 E99.00000
G1 X108.331 Y101.762 E99.02590
G1 X97.688 Y91.119 E99.44119
G1 X98.627 Y91.119 E99.46708
G1 X108.331 Y100.823 E99.84575
G1 X108.331 Y99.885 E99.87164
G1 X99.565 Y91.119 E100.21369
G1 X100.504 Y91.119 E100.23959
G1 X108.331 Y98.946 E100.54502
G1 X108.331 Y98.008 E100.57091
G1 X101.442 Y91.119 E100.83972
G1 X102.381 Y91.119 E100.86561
G1 X108.331 Y97.069 E101.09780
G1 X108.331 Y96.131 E101.12369
G1 X103.319 Y91.119 E101.31926
G1 X104.258 Y91.119 E101.34515
G1 X108.331 Y95.192 E101.50410
G1 X108.331 Y94.254 E101.53000
G1 X105.196 Y91.119 E101.65232
G1 X106.135 Y91.119 E101.67821
G1 X108.331 Y93.315 E101.76392
G1 X108.331 Y92.376 E101.78981
G1 X107.073 Y91.119 E101.83890
G1 X108.012 Y91.119 E101.86479
G1 X108.331 Y91.438 E101.87725
M106 S186.15
G1 Z0.700 F6000.000
G1 X108.631 Y109.281 F6000.000
G1 X91.369 Y109.281 E102.34989 F3600.000
G1 X91.369 Y90.719 E102.85813
G1 X108.631 Y90.719 E103.33077
G1 X108.631 Y109.221 E103.83736
G1 X109.517 Y109.800 F6000.000
G1 X90.483 Y109.800 E104.13691 F1800.000
G1 X90.850 Y109.433 E104.14509
G1 X90.850 Y90.567 E104.44199
G1 X90.483 Y90.200 E104.45016
G1 X109.517 Y90.200 E104.74972
G1 X109.150 Y90.567 E104.75789
G1 X109.150 Y109.433 E105.05480
G1 X109.475 Y109.758 E105.06203
G1 X109.131 Y109.696 F6000.000
G1 X107.912 Y108.881 F6000.000
G1 X108.231 Y108.562 E105.07442 F1200.000
G1 X108.231 Y107.629 E105.10001
G1 X106.979 Y108.881 E105.14858
G1 X106.046 Y108.881 E105.17417
G1 X108.231 Y106.696 E105.25894
G1 X108.231 Y105.763 E105.28453
G1 X105.113 Y108.881 E105.40548
G1 X104.180 Y108.881 E105.43107
G1 X108.231 Y104.830 E105.58821
G1 X108.231 Y103.897 E105.61380
G1 X103.247 Y108.881 E105.80713
G1 X102.314 Y108.881 E105.83272
G1 X108.231 Y102.964 E106.06224
G1 X108.231 Y102.031 E106.08783
G1 X101.381 Y108.881 E106.35354
G1 X100.448 Y108.881 E106.37913
G1 X108.231 Y101.098 E106.68102
G1 X108.231 Y100.165 E106.70661
G1 X99.515 Y108.881 E107.04470
G1 X98.582 Y108.881 E107.07029
G1 X108.231 Y99.232 E107.44456
G1 X108.231 Y98.299 E107.47015
G1 X97.649 Y108.881 E107.88061
G1 X96.716 Y108.881 E107.90620
G1 X108.231 Y97.366 E108.35285
G1 X108.231 Y96.433 E108.37844
G1 X95.783 Y108.881 E108.86128
G1 X94.850 Y108.881 E108.88687
G1 X108.231 Y95.500 E109.40589
G1 X108.231 Y94.567 E109.43148
G1 X93.917 Y108.881 E109.98670
G1 X92.984 Y108.881 E110.01229
G1 X108.231 Y93.634 E110.60369
G1 X108.231 Y92.702 E110.62928
G1 X92.052 Y108.881 E111.25687
G1 X91.769 Y108.231 E111.27631
G1 X108.231 Y91.769 E111.91488
G1 X107.948 Y91.119 E111.93433
G1 X91.769 Y107.298 E112.56192
G1 X91.769 Y106.365 E112.58750
G1 X107.015 Y91.119 E113.17891
G1 X106.082 Y91.119 E113.20450
G1 X91.769 Y105.432 E113.75971
G1 X91.769 Y104.500 E113.78530
G1 X105.150 Y91.119 E114.30432
G1 X104.217 Y91.119 E114.32991
G1 X91.769 Y103.567 E114.81275
G1 X91.769 Y102.634 E114.83834
G1 X103.284 Y91.119 E115.28499
G1 X102.351 Y91.119 E115.31058
G1 X91.769 Y101.701 E115.72104
G1 X91.769 Y100.768 E115.74662
G1 X101.418 Y91.119 E116.12090
G1 X100.485 Y91.119 E116.14648
G1 X91.769 Y99.835 E116.48457
G1 X91.769 Y98.902 E116.51016
G1 X99.552 Y91.119 E116.81205
G1 X98.619 Y91.119 E116.83764
G1 X91.769 Y97.969 E117.10335
G1 X91.769 Y97.036 E117.12894
G1 X97.686 Y91.119 E117.35845
G1 X96.753 Y91.119 E117.38404
G1 X91.769 Y96.103 E117.57737
G1 X91.769 Y95.170 E117.60296
G1 X95.820 Y91.119 E117.76010
G1 X94.887 Y91.119 E117.78569
G1 X91.769 Y94.237 E117.90664
G1 X91.769 Y93.304 E117.93223
G1 X93.954 Y91.119 E118.01700
G1 X93.021 Y91.119 E118.04259
G1 X91.769 Y92.371 E118.09116
G1 X91.769 Y91.438 E118.11675
G1 X92.088 Y91.119 E118.12914
M106 S188.7
G1 Z0.800 F6000.000
G1 X108.531 Y109.281 F6000.000
G1 X91.469 Y109.281 E118.59630 F3600.000
G1 X91.469 Y90.719 E119.10453
G1 X108.531 Y90.719 E119.57170
G1 X108.531 Y109.221 E120.07829
G1 X109.517 Y109.800 F6000.000
G1 X90.483 Y109.800 E120.37785 F1800.000
G1 X90.950 Y109.333 E120.38824
G1 X90.950 Y90.667 E120.68200
G1 X90.483 Y90.200 E120.69240
G1 X109.517 Y90.200 E120.99196
G1 X109.050 Y90.667 E121.00236
G1 X109.050 Y109.333 E121.29611
G1 X109.475 Y109.758 E121.30557
G1 X109.131 Y109.696 F6000.000
G1 X92.188 Y108.881 F6000.000
G1 X91.869 Y108.562 E121.31823 F1200.000
G1 X91.869 Y107.608 E121.34498
G1 X93.142 Y108.881 E121.39548
G1 X94.096 Y108.881 E121.42223
G1 X91.869 Y106.654 E121.51056
G1 X91.869 Y105.700 E121.53731
G1 X95.050 Y108.881 E121.66347
G1 X96.004 Y108.881 E121.69022
G1 X91.869 Y104.746 E121.85421
G1 X91.869 Y103.793 E121.88096
G1 X96.957 Y108.881 E122.08278
G1 X97.911 Y108.881 E122.10953
G1 X91.869 Y102.839 E122.34918
G1 X91.869 Y101.885 E122.37594
G1 X98.865 Y108.881 E122.65342
G1 X99.819 Y108.881 E122.68017
G1 X91.869 Y100.931 E122.99549
G1 X91.869 Y99.977 E123.02224
G1 X100.773 Y108.881 E123.37538
G1 X101.727 Y108.881 E123.40213
G1 X91.869 Y99.023 E123.79311
G1 X91.869 Y98.069 E123.81986
G1 X102.681 Y108.881 E124.24867
G1 X103.635 Y108.881 E124.27542
G1 X91.869 Y97.115 E124.74206
G1 X91.869 Y96.161 E124.76881
G1 X104.589 Y108.881 E125.27329
G1 X105.543 Y108.881 E125.30004
G1 X91.869 Y95.207 E125.84234
G1 X91.869 Y94.253 E125.86909
G1 X106.497 Y108.881 E126.44922
G1 X107.451 Y108.881 E126.47597
G1 X91.869 Y93.299 E127.09394
G1 X91.869 Y92.346 E127.12069
G1 X108.131 Y108.608 E127.76566
G1 X108.131 Y107.654 E127.79241
G1 X91.869 Y91.392 E128.43738
G1 X92.549 Y91.119 E128.45795
G1 X108.131 Y106.701 E129.07592
G1 X108.131 Y105.747 E129.10267
G1 X93.503 Y91.119 E129.68280
G1 X94.457 Y91.119 E129.70956
G1 X108.131 Y104.793 E130.25186
G1 X108.131 Y103.839 E130.27861
G1 X95.411 Y91.119 E130.78308
G1 X96.365 Y91.119 E130.80984
G1 X108.131 Y102.885 E131.27648
G1 X108.131 Y101.931 E131.30323
G1 X97.319 Y91.119 E131.73204
G1 X98.273 Y91.119 E131.75879
G1 X108.131 Y100.977 E132.14977
G1 X108.131 Y100.023 E132.17652
G1 X99.227 Y91.119 E132.52967
G1 X100.181 Y91.119 E132.55642
G1 X108.131 Y99.069 E132.87174
G1 X108.131 Y98.115 E132.89849
G1 X101.135 Y91.119 E133.17597
G1 X102.089 Y91.119 E133.20272
G1 X108.131 Y97.161 E133.44238
G1 X108.131 Y96.208 E133.46913
G1 X103.042 Y91.119 E133.67095
G1 X103.996 Y91.119 E133.69770
G1 X108.131 Y95.254 E133.86169
G1 X108.131 Y94.300 E133.88845
G1 X104.950 Y91.119 E134.01461
G1 X105.904 Y91.119 E134.04136
G1 X108.131 Y93.346 E134.12969
G1 X108.131 Y92.392 E134.15644
G1 X106.858 Y91.119 E134.20694
G1 X107.812 Y91.119 E134.23369
G1 X108.131 Y91.438 E134.24635
M106 S255
G1 Z0.900 F6000.000
G1 X108.431 Y109.281 F6000.000
G1 X91.569 Y109.281 E134.70804 F3443.766
G1 X91.569 Y90.719 E135.21627
G1 X108.431 Y90.719 E135.67796
G1 X108.431 Y109.221 E136.18455
G1 X109.517 Y109.800 F6000.000
G1 X90.483 Y109.800 E136.48411 F1721.883
G1 X91.050 Y109.233 E136.49673
G1 X91.050 Y90.767 E136.78734
G1 X90.483 Y90.200 E136.79997
G1 X109.517 Y90.200 E137.09953
G1 X108.950 Y90.767 E137.11215
G1 X108.950 Y109.233 E137.40276
G1 X109.475 Y109.758 E137.41444
G1 X109.131 Y109.696 F6000.000
G1 X101.804 Y108.709 F6000.000
G1 X107.859 Y102.654 E137.86187 F3443.766
G1 X107.859 Y93.768 E138.32610
G1 X92.918 Y108.709 E139.43006
G1 X92.141 Y100.600 E139.85565
G1 X101.450 Y91.291 E140.54350
G1 Z1.000 F6000.000
G1 X108.331 Y109.281 F6000.000
G1 X91.669 Y109.281 E140.99971 F3421.878
G1 X91.669 Y90.719 E141.50794
G1 X108.331 Y90.719 E141.96415
G1 X108.331 Y109.221 E142.47074
G1 X109.517 Y109.800 F6000.000
G1 X90.483 Y109.800 E142.77030 F1710.939
G1 X91.150 Y109.133 E142.78515
G1 X91.150 Y90.867 E143.07262
G1 X90.483 Y90.200 E143.08746
G1 X109.517 Y90.200 E143.38702
G1 X108.850 Y90.867 E143.40187
G1 X108.850 Y109.133 E143.68933
G1 X109.475 Y109.758 E143.70324
G1 X109.131 Y109.696 F6000.000
G1 X108.050 Y109.000 F6000.000
G1 X100.000 Y100.950 F6000.000
G1 X100.000 Y99.050 F6000.000
